svgs/sharp-solid/window-restore.svg

<svg xmlns="http://www.w3.org/2000/svg" viewBox="0 0 512 512"><!--! Font Awesome Pro 6.6.0 by @fontawesome - https://fontawesome.com License - https://fontawesome.com/license (Commercial License) Copyright 2024 Fonticons, Inc. --><path d="M448 64L192 64l0 32-64 0 0-32 0-64 64 0L448 0l64 0 0 64 0 256 0 64-64 0-32 0 0-64 32 0 0-256zM0 512L0 128l384 0 0 384L0 512zM64 256l256 0 0-64L64 192l0 64z"/></svg>

<svg xmlns="http://www.w3.org/2000/svg" viewBox="0 0 512 512"><!--! Font Awesome Pro 6.4.0 by @fontawesome - https://fontawesome.com License - https://fontawesome.com/license (Commercial License) Copyright 2023 Fonticons, Inc. --><path d="M448 64H192V96H128V64 0h64H448h64V64 320v64H448 416V320h32V64zM0 512V128H384V512H0zM64 256H320V192H64v64z"/></svg>
